backend/papyrus-web-graphics/src/main/resources/icons-override/full/obj16/CreateObjectAction.svg

<?xml version="1.0" encoding="UTF-8" standalone="no"?>
<svg
   width="18"
   height="16"
   viewBox="0 0 4.7624998 4.2333332"
   version="1.1"
   id="svg8"
   inkscape:version="1.3 (0e150ed, 2023-07-21)"
   sodipodi:docname="CreateObjectAction.svg"
   xml:space="preserve"
   xmlns:inkscape="http://www.inkscape.org/namespaces/inkscape"
   xmlns:sodipodi="http://sodipodi.sourceforge.net/DTD/sodipodi-0.dtd"
   xmlns:xlink="http://www.w3.org/1999/xlink"
   xmlns="http://www.w3.org/2000/svg"
   xmlns:svg="http://www.w3.org/2000/svg"
   xmlns:rdf="http://www.w3.org/1999/02/22-rdf-syntax-ns#"
   xmlns:cc="http://creativecommons.org/ns#"
   xmlns:dc="http://purl.org/dc/elements/1.1/"><metadata
     id="metadata30"><rdf:RDF><cc:Work
         rdf:about=""><dc:format>image/svg+xml</dc:format><dc:type
           rdf:resource="http://purl.org/dc/dcmitype/StillImage" /></cc:Work></rdf:RDF></metadata><defs
     id="defs2"><linearGradient
       inkscape:collect="always"
       id="linearGradient872"><stop
         style="stop-color:#cae2f9;stop-opacity:1;"
         offset="0"
         id="stop868" /><stop
         style="stop-color:#fdfeff;stop-opacity:1"
         offset="1"
         id="stop870" /></linearGradient><linearGradient
       inkscape:collect="always"
       xlink:href="#linearGradient872"
       id="linearGradient860"
       x1="-1.3993205"
       y1="1.8995942"
       x2="0.80842233"
       y2="4.3887782"
       gradientUnits="userSpaceOnUse"
       gradientTransform="matrix(1.1808967,0,0,1.1911972,4.1308337,0.12504523)" /><linearGradient
       inkscape:collect="always"
       id="linearGradient5007"><stop
         style="stop-color:#cae2f9;stop-opacity:1;"
         offset="0"
         id="stop5009" /><stop
         style="stop-color:#e6eef5;stop-opacity:1"
         offset="1"
         id="stop5011" /></linearGradient><linearGradient
       gradientTransform="matrix(0.27350664,0,0,0.28579866,0.56171773,-1.2392112)"
       y2="5.6373863"
       x2="1.7325838"
       y1="7.1840277"
       x1="2.5760703"
       gradientUnits="userSpaceOnUse"
       id="linearGradient5618"
       xlink:href="#linearGradient5007"
       inkscape:collect="always" /><linearGradient
       id="linearGradient5591-4"><stop
         style="stop-color:#e0e566;stop-opacity:1;"
         offset="0"
         id="stop5593-0" /><stop
         style="stop-color:#82c448;stop-opacity:1;"
         offset="1"
         id="stop5595-5" /></linearGradient><linearGradient
       id="linearGradient5583-2"><stop
         style="stop-color:#426e4a;stop-opacity:1;"
         offset="0"
         id="stop5585-3" /><stop
         style="stop-color:#669f71;stop-opacity:1;"
         offset="1"
         id="stop5587-3" /></linearGradient><linearGradient
       inkscape:collect="always"
       xlink:href="#linearGradient872"
       id="linearGradient865"
       x1="-47.666786"
       y1="112.97314"
       x2="-163.75984"
       y2="34.596439"
       gradientUnits="userSpaceOnUse"
       gradientTransform="matrix(0.00998666,0,0,0.01146447,-1.5444891,1.8063531)" /></defs><sodipodi:namedview
     id="base"
     pagecolor="#ffffff"
     bordercolor="#666666"
     borderopacity="1.0"
     inkscape:pageopacity="0"
     inkscape:pageshadow="2"
     inkscape:zoom="23.65474"
     inkscape:cx="15.430311"
     inkscape:cy="5.3689028"
     inkscape:document-units="mm"
     inkscape:current-layer="g882"
     inkscape:document-rotation="0"
     showgrid="false"
     inkscape:pagecheckerboard="false"
     inkscape:window-width="2560"
     inkscape:window-height="1387"
     inkscape:window-x="0"
     inkscape:window-y="25"
     inkscape:window-maximized="0"
     units="px"
     inkscape:showpageshadow="2"
     inkscape:deskcolor="#d1d1d1" /><g
     id="g27"><g
       id="g882"><rect
         style="fill:url(#linearGradient860);fill-opacity:1;stroke:#4d81b4;stroke-width:0.251044;stroke-linecap:round;stroke-miterlimit:4;stroke-dasharray:none;stroke-dashoffset:0.300095;stroke-opacity:1"
         id="rect852"
         width="3.8170176"
         height="2.769182"
         x="0.65153581"
         y="1.1431994"
         ry="0.77394843" /><path
         style="fill:none;stroke:#4d81b4;stroke-width:0.150506;stroke-linecap:round;stroke-dasharray:0.150506, 0.451517;stroke-dashoffset:0"
         d="m 2.563047,2.3287164 -0.00643,0.8058731"
         id="path1-7" /><rect
         style="fill:#2e4f6e;fill-opacity:1;stroke:#2e4f6e;stroke-width:0.18;stroke-linecap:round;stroke-dasharray:none;stroke-opacity:1"
         id="rect1"
         width="0.79415017"
         height="0.76059455"
         x="0.79415011"
         y="0.53689039" /><path
         style="display:inline;fill:url(#linearGradient5618);fill-opacity:1;stroke:#2e4f6e;stroke-width:0.126;stroke-linecap:butt;stroke-linejoin:miter;stroke-miterlimit:4;stroke-dasharray:none;stroke-opacity:1"
         d="M 0.95929383,0.14512339 H 1.4042946 l 0.00882,0.5669835 H 1.9601278 L 1.9557178,1.1383361 H 1.3963008 V 1.7188995 H 0.96370523 V 1.1383361 h -0.5552848 l -0.00441,-0.43052061 h 0.5555604 z"
         id="path5581"
         inkscape:connector-curvature="0"
         sodipodi:nodetypes="ccccccccccccc" /><path
         style="fill:none;stroke:#4d81b4;stroke-width:0.177196;stroke-linecap:round;stroke-dasharray:none"
         d="m 1.5981573,3.3378877 1.9237746,0.0018"
         id="path1" /></g></g></svg>

<svg xmlns="http://www.w3.org/2000/svg" xmlns:xlink="http://www.w3.org/1999/xlink" xml:space="preserve" width="16" height="16">
    <defs>
        <linearGradient id="a">
            <stop offset="0" style="stop-color:#cae2f9;stop-opacity:1"/>
            <stop offset="1" style="stop-color:#fdfeff;stop-opacity:1"/>
        </linearGradient>
        <linearGradient xlink:href="#a" id="c" x1="-1.399" x2=".808" y1="1.9" y2="4.389" gradientTransform="matrix(1.1809 0 0 1.1912 4.13 .125)" gradientUnits="userSpaceOnUse"/>
        <linearGradient id="b">
            <stop offset="0" style="stop-color:#cae2f9;stop-opacity:1"/>
            <stop offset="1" style="stop-color:#e6eef5;stop-opacity:1"/>
        </linearGradient>
        <linearGradient xlink:href="#b" id="d" x1="2.576" x2="1.733" y1="7.184" y2="5.637" gradientTransform="matrix(.2735 0 0 .2858 .562 -1.24)" gradientUnits="userSpaceOnUse"/>
    </defs>
    <g transform="translate(-.842 1.206)scale(3.64134)">
        <rect width="3.817" height="2.769" x=".652" y="1.143" ry=".774" style="fill:url(#c);fill-opacity:1;stroke:#4d81b4;stroke-width:.251044;stroke-linecap:round;stroke-miterlimit:4;stroke-dasharray:none;stroke-dashoffset:.300095;stroke-opacity:1"/>
        <path d="m2.563 2.329-.006.806" style="fill:none;stroke:#4d81b4;stroke-width:.150506;stroke-linecap:round;stroke-dasharray:.150506,.451517;stroke-dashoffset:0"/>
        <path d="M.794.537h.794v.761H.794z" style="fill:#2e4f6e;fill-opacity:1;stroke:#2e4f6e;stroke-width:.18;stroke-linecap:round;stroke-dasharray:none;stroke-opacity:1"/>
        <path d="M.96.145h.444l.01.567h.546l-.004.426h-.56v.58H.964v-.58H.408L.404.708H.96z" style="display:inline;fill:url(#d);fill-opacity:1;stroke:#2e4f6e;stroke-width:.126;stroke-linecap:butt;stroke-linejoin:miter;stroke-miterlimit:4;stroke-dasharray:none;stroke-opacity:1"/>
        <path d="m1.598 3.338 1.924.002" style="fill:none;stroke:#4d81b4;stroke-width:.177196;stroke-linecap:round;stroke-dasharray:none"/>
    </g>
</svg>
